symbols/web/table_restaurant/materialsymbolsoutlined/table_restaurant_wght600_24px.svg

<svg xmlns="http://www.w3.org/2000/svg" height="24" width="24"><path d="M4.7 8.875h14.6l-.725-2.55H5.45ZM12.025 7.6Zm4.35 3.925h-8.75L7.35 13.4h9.3Zm-12.75 8.8 1.35-8.8H2.95q-.65 0-1.037-.538-.388-.537-.238-1.137l1.5-5.2q.1-.425.438-.7.337-.275.812-.275h15.15q.45 0 .788.275.337.275.462.7l1.5 5.2q.2.625-.2 1.15-.4.525-1.075.525h-2.025l1.35 8.8h-2.65l-.65-4.275H6.925l-.65 4.275Z"/></svg>

<svg xmlns="http://www.w3.org/2000/svg" height="24" width="24"><path d="M4.7 8.875H19.3L18.575 6.325H5.45ZM12.025 7.6ZM16.375 11.525H7.625L7.35 13.4H16.65ZM3.625 20.325 4.975 11.525H2.95Q2.3 11.525 1.913 10.987Q1.525 10.45 1.675 9.85L3.175 4.65Q3.275 4.225 3.613 3.95Q3.95 3.675 4.425 3.675H19.575Q20.025 3.675 20.363 3.95Q20.7 4.225 20.825 4.65L22.325 9.85Q22.525 10.475 22.125 11Q21.725 11.525 21.05 11.525H19.025L20.375 20.325H17.725L17.075 16.05H6.925L6.275 20.325Z"/></svg>
